svg/dice_4.svg

<svg xmlns="http://www.w3.org/2000/svg" viewBox="0 0 24 24"><path d="M5 3h14a2 2 0 0 1 2 2v14a2 2 0 0 1-2 2H5a2 2 0 0 1-2-2V5a2 2 0 0 1 2-2m2 2a2 2 0 0 0-2 2 2 2 0 0 0 2 2 2 2 0 0 0 2-2 2 2 0 0 0-2-2m10 10a2 2 0 0 0-2 2 2 2 0 0 0 2 2 2 2 0 0 0 2-2 2 2 0 0 0-2-2m0-10a2 2 0 0 0-2 2 2 2 0 0 0 2 2 2 2 0 0 0 2-2 2 2 0 0 0-2-2M7 15a2 2 0 0 0-2 2 2 2 0 0 0 2 2 2 2 0 0 0 2-2 2 2 0 0 0-2-2"/></svg>

<?xml version="1.0" encoding="UTF-8"?><!DOCTYPE svg PUBLIC "-//W3C//DTD SVG 1.1//EN" "http://www.w3.org/Graphics/SVG/1.1/DTD/svg11.dtd"><svg xmlns="http://www.w3.org/2000/svg" xmlns:xlink="http://www.w3.org/1999/xlink" version="1.1" id="mdi-dice-4" width="24" height="24" viewBox="0 0 24 24"><path d="M5,3H19A2,2 0 0,1 21,5V19A2,2 0 0,1 19,21H5A2,2 0 0,1 3,19V5A2,2 0 0,1 5,3M7,5A2,2 0 0,0 5,7A2,2 0 0,0 7,9A2,2 0 0,0 9,7A2,2 0 0,0 7,5M17,15A2,2 0 0,0 15,17A2,2 0 0,0 17,19A2,2 0 0,0 19,17A2,2 0 0,0 17,15M17,5A2,2 0 0,0 15,7A2,2 0 0,0 17,9A2,2 0 0,0 19,7A2,2 0 0,0 17,5M7,15A2,2 0 0,0 5,17A2,2 0 0,0 7,19A2,2 0 0,0 9,17A2,2 0 0,0 7,15Z" /></svg>
